icons/lines/user-add.svg

<svg xmlns="http://www.w3.org/2000/svg" width="24" height="24" viewBox="0 0 24 24" fill="none" stroke="currentColor" stroke-width="2" stroke-linecap="round" stroke-linejoin="round" >
  <path d="M12 12C14.7614 12 17 9.76142 17 7C17 4.23858 14.7614 2 12 2C9.23858 2 7 4.23858 7 7C7 9.76142 9.23858 12 12 12Z"/>
  <path d="M3.41016 22C3.41016 18.13 7.26015 15 12.0002 15C12.9602 15 13.8902 15.13 14.7602 15.37"/>
  <path d="M22 18C22 18.32 21.96 18.63 21.88 18.93C21.79 19.33 21.63 19.72 21.42 20.06C20.73 21.22 19.46 22 18 22C16.97 22 16.04 21.61 15.34 20.97C15.04 20.71 14.78 20.4 14.58 20.06C14.21 19.46 14 18.75 14 18C14 16.92 14.43 15.93 15.13 15.21C15.86 14.46 16.88 14 18 14C19.18 14 20.25 14.51 20.97 15.33C21.61 16.04 22 16.98 22 18Z" stroke-miterlimit="10"/>
  <path d="M19.4897 17.98H16.5098" stroke-miterlimit="10"/>
  <path d="M18 16.52V19.51" stroke-miterlimit="10"/>
  </svg>

<svg xmlns="http://www.w3.org/2000/svg" width="24" height="24" viewBox="0 0 24 24" fill="none" stroke="currentColor" stroke-width="2" stroke-linecap="round" stroke-linejoin="round">
  <path d="M18 16.52v2.99" />
  <path d="M19.49 17.98h-2.98" />
  <path d="M22 18a3.6 3.6 0 0 1-.12.93 3.7 3.7 0 0 1-.46 1.13A4 4 0 0 1 18 22a4 4 0 0 1-2.66-1.03 3.7 3.7 0 0 1-.76-.91A4 4 0 0 1 18 14a4 4 0 0 1 4 4" />
  <path d="M3.41 22c0-3.87 3.85-7 8.59-7a10.4 10.4 0 0 1 2.76.37" />
  <circle cx="12" cy="7" r="5" />
</svg>
